X:68
M:2/4
L:1/8
K:G
|: G2 gf | gGGB | Gggf | aAAB | G2 gf | gbge | cecA | FDFA :|

